X:1
T:Kwirhöken
R:Polska
O:Västerbotten
M:3/4
L:1/8
K:Am
|: A>(A B/A)(^G/ A)B | c2 A7/(c/ | B)>A ^G<A B>c | A<A c<A (E2 | 
A)>(A B/A)(^G/ A)B | c2 A7/(c/ | B)>A ^G<A B>c | A2 A2 z2 :|
K:D
|:A4 d2 | A>(B A)>(F D)>F | (3 (ABA) G2 (E2 | (3 ABA) F2 (D2
A4) d2 | A>(B A)>(F D)>F | (3 (ABA) G2 (E2 | D)z D2 z2 :|

